svgs/themed_icon_calendar_15.svg

<svg height="192" width="192" xmlns="http://www.w3.org/2000/svg"><path d="M146 30H46c-8.837 0-16 7.163-16 16v100c0 8.837 7.163 16 16 16h75.373a16 16 0 0 0 11.313-4.686l24.628-24.628A16 16 0 0 0 162 121.373V46c0-8.837-7.163-16-16-16Z" stroke="#000" stroke-width="12" fill="none"/><path d="M64.852 120c-3.168 0-4.752-1.536-4.752-4.608 0-3.024 1.584-4.536 4.752-4.536h7.272V81.624l-5.256 3.168c-1.392.816-2.64 1.032-3.744.648s-1.944-1.104-2.52-2.16c-.576-1.056-.744-2.184-.504-3.384.24-1.248 1.032-2.304 2.376-3.168l10.008-6.048a17.78 17.78 0 0 1 3.024-1.512c1.056-.384 2.088-.576 3.096-.576 1.44 0 2.568.384 3.384 1.152.864.768 1.296 1.896 1.296 3.384v37.728h6.552c3.12 0 4.68 1.512 4.68 4.536 0 3.072-1.56 4.608-4.68 4.608H64.852Zm52.1.792c-2.448 0-4.968-.288-7.56-.864-2.592-.624-4.968-1.584-7.128-2.88-1.392-.768-2.256-1.752-2.592-2.952-.288-1.248-.192-2.4.288-3.456.528-1.104 1.344-1.872 2.448-2.304 1.152-.48 2.424-.336 3.816.432 3.36 1.824 6.864 2.736 10.512 2.736 2.736 0 4.848-.672 6.336-2.016 1.536-1.344 2.304-3.144 2.304-5.4 0-2.304-.744-4.152-2.232-5.544-1.44-1.392-3.408-2.088-5.904-2.088-1.248 0-2.52.216-3.816.648-1.296.384-2.592 1.08-3.888 2.088-.48.384-1.128.744-1.944 1.08a5.87 5.87 0 0 1-2.376.504c-2.928 0-4.392-1.368-4.392-4.104V74.064c0-3.216 1.608-4.824 4.824-4.824h23.112c3.216 0 4.824 1.536 4.824 4.608 0 3.024-1.608 4.536-4.824 4.536h-17.208V89.76c2.352-1.536 5.184-2.304 8.496-2.304 3.216 0 6.024.696 8.424 2.088 2.4 1.344 4.272 3.24 5.616 5.688 1.344 2.448 2.016 5.28 2.016 8.496 0 3.408-.768 6.384-2.304 8.928-1.536 2.544-3.744 4.536-6.624 5.976-2.88 1.44-6.288 2.16-10.224 2.16Z"/></svg>

<?xml version="1.0" encoding="UTF-8" standalone="no"?><svg xmlns:android="http://schemas.android.com/apk/res/android" height="192" width="192" xmlns="http://www.w3.org/2000/svg">
  <path d="M146,30H46C37.163,30 30,37.163 30,46V146C30,154.837 37.163,162 46,162H121.373C125.616,162 129.686,160.314 132.686,157.314L157.314,132.686C160.314,129.686 162,125.616 162,121.373V46C162,37.163 154.837,30 146,30Z" fill="#000000" fill-opacity="0.0" stroke="#000000" stroke-width="12"/>
  <path d="M64.852,120C61.684,120 60.1,118.464 60.1,115.392C60.1,112.368 61.684,110.856 64.852,110.856H72.124V81.624L66.868,84.792C65.476,85.608 64.228,85.824 63.124,85.44C62.02,85.056 61.18,84.336 60.604,83.28C60.028,82.224 59.86,81.096 60.1,79.896C60.34,78.648 61.132,77.592 62.476,76.728L72.484,70.68C73.492,70.056 74.5,69.552 75.508,69.168C76.564,68.784 77.596,68.592 78.604,68.592C80.044,68.592 81.172,68.976 81.988,69.744C82.852,70.512 83.284,71.64 83.284,73.128V110.856H89.836C92.956,110.856 94.516,112.368 94.516,115.392C94.516,118.464 92.956,120 89.836,120H64.852ZM116.952,120.792C114.504,120.792 111.984,120.504 109.392,119.928C106.8,119.304 104.424,118.344 102.264,117.048C100.872,116.28 100.008,115.296 99.672,114.096C99.384,112.848 99.48,111.696 99.96,110.64C100.488,109.536 101.304,108.768 102.408,108.336C103.56,107.856 104.832,108 106.224,108.768C109.584,110.592 113.088,111.504 116.736,111.504C119.472,111.504 121.584,110.832 123.072,109.488C124.608,108.144 125.376,106.344 125.376,104.088C125.376,101.784 124.632,99.936 123.144,98.544C121.704,97.152 119.736,96.456 117.24,96.456C115.992,96.456 114.72,96.672 113.424,97.104C112.128,97.488 110.832,98.184 109.536,99.192C109.056,99.576 108.408,99.936 107.592,100.272C106.824,100.608 106.032,100.776 105.216,100.776C102.288,100.776 100.824,99.408 100.824,96.672V74.064C100.824,70.848 102.432,69.24 105.648,69.24H128.76C131.976,69.24 133.584,70.776 133.584,73.848C133.584,76.872 131.976,78.384 128.76,78.384H111.552V89.76C113.904,88.224 116.736,87.456 120.048,87.456C123.264,87.456 126.072,88.152 128.472,89.544C130.872,90.888 132.744,92.784 134.088,95.232C135.432,97.68 136.104,100.512 136.104,103.728C136.104,107.136 135.336,110.112 133.8,112.656C132.264,115.2 130.056,117.192 127.176,118.632C124.296,120.072 120.888,120.792 116.952,120.792Z" fill="#000000"/>
</svg>
